icons/pin.svg

<svg fill="none" height="28" viewBox="0 0 28 28" width="28" xmlns="http://www.w3.org/2000/svg"><g fill="#fff"><path clip-rule="evenodd" d="m6.59454 23.822c.00127-.0015.00418-.0054.00714-.0093-.00052.0007.00053-.0007 0 0-.00111.0013.00138-.0018 0 0" fill-rule="evenodd"/><path d="m5.20025 22.6341c-.32623.3864-.28176.9708.10472 1.297.38623.3254.96343.2765 1.28957-.1091.00264-.0035.00489-.0066.00714-.0093l.04294-.0515c.01421-.0168.03158-.0371.0517-.0606.02659-.0311.05798-.0677.09318-.1093.12352-.1461.30022-.3549.51333-.6064l.09008-.1063c.41626-.4912.95127-1.1226 1.4964-1.761.58561-.6858 1.18259-1.3796 1.65449-1.9209.1461-.1676.2801-.3189.397-.4507.3162.2161.7429.4997 1.2556.778 1.1717.6361 2.8555 1.2917 4.8006 1.1018 2.837-.2773 4.8419-2.2948 5.634-4.8203.7916-2.5237.4046-5.6061-1.5077-8.22391-2.4126-3.30263-6.7562-4.53939-10.0752-3.19085-2.21137.89876-3.56218 2.76989-4.08511 4.82383-.48683 1.91313-.27353 4.03813.65463 5.80933l.19674.3506.10911.1484c.28657.3152.76429.3959 1.1447.1699.38056-.2263.5374-.6849.39706-1.0874l-.07691-.1681-.14845-.2648c-.70717-1.3505-.88238-3.0085-.50081-4.5072.40372-1.58519 1.41074-2.93205 2.99764-3.57718 2.4824-1.00889 5.9526-.10211 7.9074 2.57378 1.5731 2.1534 1.8548 4.6319 1.2395 6.5945-.615 1.9608-2.0922 3.3541-4.0655 3.5468-1.4342.14-2.7385-.3404-3.7489-.8889-.5005-.2718-.913-.55-1.2251-.7655-.0366-.0253-.0736-.0511-.1105-.0768-.1093-.0763-.217-.1514-.3045-.2058-.0541-.0337-.1478-.0881-.2522-.1306-.0494-.0201-.1535-.0596-.2879-.0733-.1096-.0112-.3572-.0169-.6028.1395l-.1037.0769c-.1053.0892-.26486.2638-.40605.4203-.16436.1821-.37477.422-.61349.6958-.47819.5484-1.08015 1.248-1.66697 1.9352-.58704.6875-1.16187 1.3656-1.59005 1.8709l-.08108.0957c-.17765.2096-.32616.3848-.43404.5124-.0352.0416-.06648.0782-.09302.1091-.02008.0235-.03758.0439-.05185.0608l-.03756.0447c-.00245.0029-.00555.007-.00814.0105z"/></g></svg>

<svg width="28" height="28" viewBox="0 0 28 28" fill="none" xmlns="http://www.w3.org/2000/svg">
<path fill-rule="evenodd" clip-rule="evenodd" d="M6.59454 23.822C6.59581 23.8205 6.59872 23.8166 6.60168 23.8127C6.60116 23.8134 6.60221 23.812 6.60168 23.8127C6.60057 23.814 6.60306 23.8109 6.60168 23.8127" fill="white"/>
<path d="M5.20025 22.6341C4.87402 23.0205 4.91849 23.6049 5.30497 23.9311C5.6912 24.2565 6.2684 24.2076 6.59454 23.822C6.59718 23.8185 6.59943 23.8154 6.60168 23.8127L6.64462 23.7612C6.65883 23.7444 6.6762 23.7241 6.69632 23.7006C6.72291 23.6695 6.7543 23.6329 6.7895 23.5913C6.91302 23.4452 7.08972 23.2364 7.30283 22.9849L7.39291 22.8786C7.80917 22.3874 8.34418 21.756 8.88931 21.1176C9.47492 20.4318 10.0719 19.738 10.5438 19.1967C10.6899 19.0291 10.8239 18.8778 10.9408 18.746C11.257 18.9621 11.6837 19.2457 12.1964 19.524C13.3681 20.1601 15.0519 20.8157 16.997 20.6258C19.834 20.3485 21.8389 18.331 22.631 15.8055C23.4226 13.2818 23.0356 10.1994 21.1233 7.58159C18.7107 4.27896 14.3671 3.0422 11.0481 4.39074C8.83673 5.2895 7.48592 7.16063 6.96299 9.21457C6.47616 11.1277 6.68946 13.2527 7.61762 15.0239L7.81436 15.3745L7.92347 15.5229C8.21004 15.8381 8.68776 15.9188 9.06817 15.6928C9.44873 15.4665 9.60557 15.0079 9.46523 14.6054L9.38832 14.4373L9.23987 14.1725C8.5327 12.822 8.35749 11.164 8.73906 9.6653C9.14278 8.08011 10.1498 6.73325 11.7367 6.08812C14.2191 5.07923 17.6893 5.98601 19.6441 8.6619C21.2172 10.8153 21.4989 13.2938 20.8836 15.2564C20.2686 17.2172 18.7914 18.6105 16.8181 18.8032C15.3839 18.9432 14.0796 18.4628 13.0692 17.9143C12.5687 17.6425 12.1562 17.3643 11.8441 17.1488C11.8075 17.1235 11.7705 17.0977 11.7336 17.072C11.6243 16.9957 11.5166 16.9206 11.4291 16.8662C11.375 16.8325 11.2813 16.7781 11.1769 16.7356C11.1275 16.7155 11.0234 16.676 10.889 16.6623C10.7794 16.6511 10.5318 16.6454 10.2862 16.8018L10.1825 16.8787C10.0772 16.9679 9.91764 17.1425 9.77645 17.299C9.61209 17.4811 9.40168 17.721 9.16296 17.9948C8.68477 18.5432 8.08281 19.2428 7.49599 19.93C6.90895 20.6175 6.33412 21.2956 5.90594 21.8009L5.82486 21.8966C5.64721 22.1062 5.4987 22.2814 5.39082 22.409C5.35562 22.4506 5.32434 22.4872 5.2978 22.5181C5.27772 22.5416 5.26022 22.562 5.24595 22.5789L5.20839 22.6236C5.20594 22.6265 5.20284 22.6306 5.20025 22.6341Z" fill="white"/>
</svg>
